icons/eraser-fill.svg

<svg xmlns="http://www.w3.org/2000/svg" width="24" height="24" fill="none"><g clip-path="url(#a)"><g><path fill="#121212" d="M14 19H21V21H12L8.002 21.002L1.515 14.515C1.32753 14.3274 1.22221 14.0731 1.22221 13.808C1.22221 13.5428 1.32753 13.2885 1.515 13.101L12.12 2.49397C12.2129 2.40099 12.3232 2.32723 12.4446 2.27691C12.566 2.22659 12.6961 2.20068 12.8275 2.20068C12.9589 2.20068 13.089 2.22659 13.2104 2.27691C13.3318 2.32723 13.4421 2.40099 13.535 2.49397L21.313 10.272C21.5005 10.4595 21.6058 10.7138 21.6058 10.979C21.6058 11.2441 21.5005 11.4984 21.313 11.686L14 19ZM15.657 14.515L19.192 10.979L12.828 4.61497L9.293 8.15097L15.657 14.515Z"/></g></g><defs><clipPath id="a"><rect width="24" height="24" fill="white"/></clipPath></defs></svg>

<svg width="24" height="24" fill="none" xmlns="http://www.w3.org/2000/svg"><g clip-path="url(#a)"><path d="M14 19h7v2h-9l-3.998.002-6.487-6.487a1 1 0 0 1 0-1.414L12.12 2.494a1 1 0 0 1 1.415 0l7.778 7.778a1 1 0 0 1 0 1.414L14 19Zm1.657-4.485 3.535-3.536-6.364-6.364-3.535 3.536 6.364 6.364Z" /></g><defs><clipPath id="a"><path fill="#fff" d="M0 0h24v24H0z"/></clipPath></defs></svg>
